X: 1152
T: Duke of Perth's Reel
%R: reel
B: Niel Gow & Sons "Complete Repository" v.1 p.25 #2
Z: 2021 John Chambers <jc:trillian.mit.edu>
M: C|
L: 1/8
K: G
% - - - - - - - - - -
% Voice 1 formatted for proofreading.
V: 1 staves=2
B |\
(G/A/B/c/ d)B gBdB | gBdB aA-A>B | (B/A/B/c/ d)B gBdB | cATd>c BGG :| f | Tg>age abaf | (gag).e beef |
Tg>age abaf | gdec BGGf || Tg>age abaf | (gag).e beef | Tg>age abaf | gdec BGG |]
% - - - - - - - - - -
% Voice 2 preserves the book's staff layout.
V: 2 clef=bass middle=d
z | g2g2 g2g2 | g2g2 a2a2 | g2g2 g2g2 | c2d2 G2G :| z | g2g2 f2f2 | g2g2 e2e2 |
g2g2 d2d2 | B2c2 G2G2 || g2g2 f2f2 | g2g2 e2e2 | g2g2 d2d2 | B2c2 G2G |]
